dist/static/images/common/quiz/logo-dark.svg

<svg width="343" height="76" viewBox="0 0 343 76" fill="none" xmlns="http://www.w3.org/2000/svg">
<path d="M0 10.176C0 6.848 1.184 4.32 3.552 2.592C5.984 0.864 9.504 0 14.112 0V28.128H41.088V10.176C41.088 6.848 42.272 4.32 44.64 2.592C47.072 0.864 50.592 0 55.2 0V58.752C55.2 62.08 53.984 64.608 51.552 66.336C49.184 68.064 45.696 68.928 41.088 68.928V40.32H14.112V58.752C14.112 62.08 12.896 64.608 10.464 66.336C8.096 68.064 4.608 68.928 0 68.928V10.176Z" fill="#002ED0"/>
<path d="M82.0973 68.928C77.8733 68.928 74.0333 68.16 70.5773 66.624C67.1213 65.088 64.4013 62.976 62.4173 60.288C60.4333 57.536 59.4412 54.432 59.4412 50.976V38.208C59.4412 34.688 60.4013 31.488 62.3213 28.608C64.2413 25.664 66.9293 23.36 70.3853 21.696C73.8413 20.032 77.7453 19.2 82.0973 19.2C86.4493 19.2 90.3533 20.032 93.8092 21.696C97.2653 23.36 99.9533 25.664 101.873 28.608C103.793 31.488 104.753 34.688 104.753 38.208V50.976C104.753 54.432 103.761 57.536 101.777 60.288C99.7933 62.976 97.0733 65.088 93.6173 66.624C90.1613 68.16 86.3213 68.928 82.0973 68.928ZM82.0973 57.6C85.1053 57.6 87.4413 56.928 89.1053 55.584C90.7693 54.24 91.6012 52.384 91.6012 50.016V38.88C91.6012 36.384 90.7373 34.368 89.0093 32.832C87.3453 31.296 85.0413 30.528 82.0973 30.528C79.1533 30.528 76.8173 31.296 75.0893 32.832C73.4253 34.368 72.5933 36.384 72.5933 38.88V50.016C72.5933 52.384 73.4253 54.24 75.0893 55.584C76.7533 56.928 79.0893 57.6 82.0973 57.6Z" fill="#002ED0"/>
<path d="M109.035 29.184C109.035 25.984 110.059 23.52 112.107 21.792C114.155 20.064 117.259 19.2 121.419 19.2V24.864C120.459 25.888 119.659 26.976 119.019 28.128L119.691 28.512C121.739 25.44 123.851 23.136 126.027 21.6C128.267 20 130.923 19.2 133.995 19.2C139.435 19.2 143.211 21.92 145.323 27.36C146.923 24.8 148.971 22.816 151.467 21.408C153.963 19.936 156.779 19.2 159.915 19.2C164.267 19.2 167.723 20.8 170.283 24C172.907 27.2 174.219 31.264 174.219 36.192V61.248C174.219 64 173.163 65.984 171.051 67.2C168.939 68.352 165.675 68.928 161.259 68.928V37.344C161.259 35.168 160.779 33.44 159.819 32.16C158.859 30.88 157.355 30.24 155.307 30.24C153.259 30.24 151.531 30.976 150.123 32.448C148.715 33.856 148.011 36.256 148.011 39.648V61.248C148.011 64 146.955 65.984 144.843 67.2C142.795 68.352 139.595 68.928 135.243 68.928V37.344C135.243 35.168 134.763 33.44 133.803 32.16C132.843 30.88 131.371 30.24 129.387 30.24C124.459 30.24 121.995 33.536 121.995 40.128V61.248C121.995 64 120.939 65.984 118.827 67.2C116.715 68.352 113.451 68.928 109.035 68.928V29.184Z" fill="#002ED0"/>
<path d="M203.9 68.928C199.932 68.928 196.252 68.128 192.86 66.528C189.532 64.928 186.876 62.752 184.892 60C182.908 57.248 181.916 54.176 181.916 50.784V38.496C181.916 34.912 182.908 31.648 184.892 28.704C186.94 25.696 189.66 23.36 193.052 21.696C196.444 20.032 200.092 19.2 203.996 19.2C207.836 19.2 211.356 20 214.556 21.6C217.82 23.136 220.38 25.344 222.236 28.224C224.092 31.04 225.02 34.24 225.02 37.824V43.008C225.02 44.544 224.444 45.856 223.292 46.944C222.14 47.968 220.668 48.48 218.876 48.48H194.684V49.824C194.684 52.384 195.452 54.496 196.988 56.16C198.588 57.76 200.924 58.56 203.996 58.56C207.004 58.56 209.212 57.92 210.62 56.64C212.028 55.296 212.732 53.632 212.732 51.648C214.012 51.52 214.972 51.456 215.612 51.456C218.236 51.456 220.252 52 221.66 53.088C223.068 54.176 223.772 55.776 223.772 57.888C223.772 59.616 222.908 61.344 221.18 63.072C219.452 64.8 217.052 66.208 213.98 67.296C210.972 68.384 207.612 68.928 203.9 68.928ZM213.116 39.168V37.824C213.116 35.264 212.252 33.248 210.524 31.776C208.86 30.24 206.652 29.472 203.9 29.472C201.148 29.472 198.908 30.24 197.18 31.776C195.516 33.248 194.684 35.264 194.684 37.824V39.168H213.116Z" fill="#002ED0"/>
<path d="M236.47 5.964C236.47 4.33067 237.137 3.03067 238.47 2.064C239.803 1.064 241.587 0.564003 243.82 0.564003L253.82 26.064L252.57 29.464L253.12 29.714L263.87 0.614002C266.103 0.614002 267.887 1.114 269.22 2.114C270.553 3.08067 271.22 4.38067 271.22 6.014V36.514C266.453 36.514 264.07 34.764 264.07 31.264V16.964L265.87 11.964L265.27 11.764L256.77 34.564C256.537 35.1307 256.153 35.5973 255.62 35.964C255.087 36.3307 254.503 36.514 253.87 36.514C253.203 36.514 252.603 36.3307 252.07 35.964C251.537 35.5973 251.153 35.114 250.92 34.514L242.42 11.664L241.82 11.914L243.62 16.914V31.264C243.62 34.764 241.237 36.514 236.47 36.514V5.964Z" fill="#002ED0"/>
<path d="M284.004 36.514C282.371 36.514 280.838 36.1973 279.404 35.564C278.004 34.8973 276.871 33.9473 276.004 32.714C275.138 31.4473 274.704 29.9307 274.704 28.164C274.704 26.3973 275.171 24.8807 276.104 23.614C277.038 22.314 278.271 21.3307 279.804 20.664C281.371 19.9973 283.071 19.664 284.904 19.664C286.438 19.664 287.788 19.8973 288.954 20.364C290.154 20.8307 291.271 21.514 292.304 22.414L292.554 22.114C291.854 21.4807 291.304 21.0307 290.904 20.764V20.114C290.904 18.8473 290.438 17.8473 289.504 17.114C288.604 16.3473 287.321 15.964 285.654 15.964C284.188 15.964 282.888 16.2307 281.754 16.764C280.621 17.2973 279.704 18.0807 279.004 19.114C278.204 18.914 277.521 18.5473 276.954 18.014C276.421 17.4473 276.154 16.8307 276.154 16.164C276.154 15.1307 276.604 14.1973 277.504 13.364C278.404 12.4973 279.621 11.8307 281.154 11.364C282.721 10.864 284.438 10.614 286.304 10.614C289.938 10.614 292.738 11.4473 294.704 13.114C296.671 14.7807 297.654 17.0473 297.654 19.914V32.064C297.654 33.6307 297.138 34.764 296.104 35.464C295.104 36.164 293.504 36.514 291.304 36.514V34.564C291.804 34.0973 292.204 33.6807 292.504 33.314L292.254 33.064C291.154 34.1973 290.004 35.064 288.804 35.664C287.604 36.2307 286.004 36.514 284.004 36.514ZM285.904 31.614C287.504 31.614 288.754 31.314 289.654 30.714C290.554 30.114 291.004 29.2473 291.004 28.114C291.004 27.014 290.538 26.1473 289.604 25.514C288.704 24.8807 287.471 24.564 285.904 24.564C284.504 24.564 283.388 24.8807 282.554 25.514C281.754 26.1473 281.354 27.014 281.354 28.114C281.354 29.2473 281.754 30.114 282.554 30.714C283.388 31.314 284.504 31.614 285.904 31.614Z" fill="#002ED0"/>
<path d="M312.206 36.514C309.372 36.514 307.289 35.6973 305.956 34.064C304.622 32.4307 303.956 30.3307 303.956 27.764V16.114H298.656C298.656 14.414 298.972 13.1473 299.606 12.314C300.239 11.4807 301.072 11.064 302.106 11.064H304.056V7.114C304.056 5.68067 304.606 4.664 305.706 4.064C306.806 3.43067 308.472 3.114 310.706 3.114V11.064H317.356C317.356 12.864 317.022 14.164 316.356 14.964C315.689 15.7307 314.589 16.114 313.056 16.114H310.806V27.514C310.806 28.614 311.022 29.414 311.456 29.914C311.889 30.3807 312.639 30.614 313.706 30.614C314.872 30.614 316.072 30.2807 317.306 29.614C317.672 29.9473 317.956 30.364 318.156 30.864C318.389 31.364 318.506 31.864 318.506 32.364C318.506 33.0307 318.272 33.6807 317.806 34.314C317.339 34.9473 316.622 35.4807 315.656 35.914C314.722 36.314 313.572 36.514 312.206 36.514Z" fill="#002ED0"/>
<path d="M331.438 36.514C329.371 36.514 327.454 36.0973 325.688 35.264C323.954 34.4307 322.571 33.2973 321.538 31.864C320.504 30.4307 319.988 28.8307 319.988 27.064V20.664C319.988 18.7973 320.504 17.0973 321.538 15.564C322.604 13.9973 324.021 12.7807 325.788 11.914C327.554 11.0473 329.454 10.614 331.488 10.614C333.488 10.614 335.321 11.0307 336.988 11.864C338.688 12.664 340.021 13.814 340.988 15.314C341.954 16.7807 342.438 18.4473 342.438 20.314V23.014C342.438 23.814 342.138 24.4973 341.538 25.064C340.938 25.5973 340.171 25.864 339.238 25.864H326.638V26.564C326.638 27.8973 327.038 28.9973 327.838 29.864C328.671 30.6973 329.888 31.114 331.488 31.114C333.054 31.114 334.204 30.7807 334.938 30.114C335.671 29.414 336.038 28.5473 336.038 27.514C336.704 27.4473 337.204 27.414 337.538 27.414C338.904 27.414 339.954 27.6973 340.688 28.264C341.421 28.8307 341.788 29.664 341.788 30.764C341.788 31.664 341.338 32.564 340.438 33.464C339.538 34.364 338.288 35.0973 336.688 35.664C335.121 36.2307 333.371 36.514 331.438 36.514ZM336.238 21.014V20.314C336.238 18.9807 335.788 17.9307 334.888 17.164C334.021 16.364 332.871 15.964 331.438 15.964C330.004 15.964 328.838 16.364 327.938 17.164C327.071 17.9307 326.638 18.9807 326.638 20.314V21.014H336.238Z" fill="#002ED0"/>
<path d="M233.336 68.496C232.248 68.496 231.32 68.144 230.552 67.44C229.784 66.704 229.4 65.776 229.4 64.656C229.4 63.536 229.784 62.608 230.552 61.872C231.32 61.136 232.248 60.768 233.336 60.768C234.424 60.768 235.352 61.136 236.12 61.872C236.92 62.608 237.32 63.536 237.32 64.656C237.32 65.776 236.92 66.704 236.12 67.44C235.352 68.144 234.424 68.496 233.336 68.496Z" fill="#FFD53F"/>
<path d="M248.808 68.37C247.402 68.37 246.099 68.0867 244.898 67.52C243.719 66.9533 242.778 66.1827 242.076 65.208C241.373 64.2333 241.022 63.1453 241.022 61.944V57.592C241.022 56.3227 241.373 55.1667 242.076 54.124C242.801 53.0587 243.764 52.2313 244.966 51.642C246.167 51.0527 247.459 50.758 248.842 50.758C250.202 50.758 251.448 51.0413 252.582 51.608C253.738 52.152 254.644 52.934 255.302 53.954C255.959 54.9513 256.288 56.0847 256.288 57.354V59.19C256.288 59.734 256.084 60.1987 255.676 60.584C255.268 60.9467 254.746 61.128 254.112 61.128H245.544V61.604C245.544 62.5107 245.816 63.2587 246.36 63.848C246.926 64.4147 247.754 64.698 248.842 64.698C249.907 64.698 250.689 64.4713 251.188 64.018C251.686 63.542 251.936 62.9527 251.936 62.25C252.389 62.2047 252.729 62.182 252.956 62.182C253.885 62.182 254.599 62.3747 255.098 62.76C255.596 63.1453 255.846 63.712 255.846 64.46C255.846 65.072 255.54 65.684 254.928 66.296C254.316 66.908 253.466 67.4067 252.378 67.792C251.312 68.1773 250.122 68.37 248.808 68.37ZM252.072 57.83V57.354C252.072 56.4473 251.766 55.7333 251.154 55.212C250.564 54.668 249.782 54.396 248.808 54.396C247.833 54.396 247.04 54.668 246.428 55.212C245.838 55.7333 245.544 56.4473 245.544 57.354V57.83H252.072Z" fill="#002ED0"/>
<path d="M259.798 68.37C259.322 68.37 258.835 68.2907 258.336 68.132C257.838 67.996 257.441 67.7693 257.146 67.452L263.062 59.326L257.656 51.438C257.838 51.234 258.189 51.0753 258.71 50.962C259.232 50.826 259.696 50.758 260.104 50.758C261.419 50.758 262.303 51.1207 262.756 51.846L265.544 56.334L264.83 57.32L265.102 57.524L268.774 51.846C269.25 51.1207 270.191 50.758 271.596 50.758C272.004 50.758 272.435 50.826 272.888 50.962C273.364 51.0753 273.693 51.234 273.874 51.438L268.434 59.326L274.384 67.452C274.09 67.7693 273.716 67.996 273.262 68.132C272.809 68.2907 272.356 68.37 271.902 68.37C271.404 68.37 270.905 68.2793 270.406 68.098C269.93 67.9167 269.59 67.69 269.386 67.418L265.748 62.012L262.144 67.418C261.94 67.7127 261.623 67.9393 261.192 68.098C260.762 68.2793 260.297 68.37 259.798 68.37Z" fill="#002ED0"/>
<path d="M276.586 53.852C276.586 52.9907 276.949 52.2653 277.674 51.676C278.399 51.064 279.465 50.758 280.87 50.758V52.594C280.598 52.934 280.383 53.24 280.224 53.512L280.394 53.648C281.097 52.6733 281.879 51.948 282.74 51.472C283.624 50.996 284.723 50.758 286.038 50.758C287.262 50.758 288.35 51.0187 289.302 51.54C290.277 52.0613 291.025 52.798 291.546 53.75C292.09 54.6793 292.362 55.7447 292.362 56.946V62.182C292.362 63.406 292.056 64.494 291.444 65.446C290.855 66.3753 290.027 67.1007 288.962 67.622C287.919 68.1207 286.741 68.37 285.426 68.37C284.655 68.37 283.817 68.2113 282.91 67.894C282.026 67.5767 281.289 67.1347 280.7 66.568L280.564 66.738C280.677 66.9193 280.927 67.146 281.312 67.418V72.11C281.312 74.15 279.737 75.17 276.586 75.17V53.852ZM284.474 64.358C285.517 64.358 286.31 64.1427 286.854 63.712C287.421 63.2813 287.704 62.6693 287.704 61.876V57.286C287.704 56.47 287.421 55.8467 286.854 55.416C286.31 54.9853 285.517 54.77 284.474 54.77C283.522 54.77 282.74 54.9967 282.128 55.45C281.539 55.8807 281.244 56.436 281.244 57.116V62.012C281.244 62.6693 281.539 63.2247 282.128 63.678C282.74 64.1313 283.522 64.358 284.474 64.358Z" fill="#002ED0"/>
<path d="M303.028 68.37C301.623 68.37 300.32 68.0867 299.118 67.52C297.94 66.9533 296.999 66.1827 296.296 65.208C295.594 64.2333 295.242 63.1453 295.242 61.944V57.592C295.242 56.3227 295.594 55.1667 296.296 54.124C297.022 53.0587 297.985 52.2313 299.186 51.642C300.388 51.0527 301.68 50.758 303.062 50.758C304.422 50.758 305.669 51.0413 306.802 51.608C307.958 52.152 308.865 52.934 309.522 53.954C310.18 54.9513 310.508 56.0847 310.508 57.354V59.19C310.508 59.734 310.304 60.1987 309.896 60.584C309.488 60.9467 308.967 61.128 308.332 61.128H299.764V61.604C299.764 62.5107 300.036 63.2587 300.58 63.848C301.147 64.4147 301.974 64.698 303.062 64.698C304.128 64.698 304.91 64.4713 305.408 64.018C305.907 63.542 306.156 62.9527 306.156 62.25C306.61 62.2047 306.95 62.182 307.176 62.182C308.106 62.182 308.82 62.3747 309.318 62.76C309.817 63.1453 310.066 63.712 310.066 64.46C310.066 65.072 309.76 65.684 309.148 66.296C308.536 66.908 307.686 67.4067 306.598 67.792C305.533 68.1773 304.343 68.37 303.028 68.37ZM306.292 57.83V57.354C306.292 56.4473 305.986 55.7333 305.374 55.212C304.785 54.668 304.003 54.396 303.028 54.396C302.054 54.396 301.26 54.668 300.648 55.212C300.059 55.7333 299.764 56.4473 299.764 57.354V57.83H306.292Z" fill="#002ED0"/>
<path d="M322.788 54.77C321.428 54.77 320.329 55.1213 319.49 55.824C318.652 56.5267 318.232 57.4107 318.232 58.476V65.65C318.232 66.6247 317.847 67.3273 317.076 67.758C316.328 68.166 315.161 68.37 313.574 68.37V54.294C313.574 53.1607 313.948 52.288 314.696 51.676C315.444 51.064 316.555 50.758 318.028 50.758V52.764C317.688 53.1267 317.405 53.512 317.178 53.92L317.416 54.056C318.844 51.8573 320.624 50.758 322.754 50.758C323.774 50.758 324.545 51.03 325.066 51.574C325.588 52.118 325.848 52.8093 325.848 53.648C325.848 54.2827 325.678 54.838 325.338 55.314C324.704 54.9513 323.854 54.77 322.788 54.77Z" fill="#002ED0"/>
<path d="M336.253 68.37C334.326 68.37 332.91 67.8147 332.003 66.704C331.096 65.5933 330.643 64.1653 330.643 62.42V54.498H327.039C327.039 53.342 327.254 52.4807 327.685 51.914C328.116 51.3473 328.682 51.064 329.385 51.064H330.711V48.378C330.711 47.4033 331.085 46.712 331.833 46.304C332.581 45.8733 333.714 45.658 335.233 45.658V51.064H339.755C339.755 52.288 339.528 53.172 339.075 53.716C338.622 54.2373 337.874 54.498 336.831 54.498H335.301V62.25C335.301 62.998 335.448 63.542 335.743 63.882C336.038 64.1993 336.548 64.358 337.273 64.358C338.066 64.358 338.882 64.1313 339.721 63.678C339.97 63.9047 340.163 64.188 340.299 64.528C340.458 64.868 340.537 65.208 340.537 65.548C340.537 66.0013 340.378 66.4433 340.061 66.874C339.744 67.3047 339.256 67.6673 338.599 67.962C337.964 68.234 337.182 68.37 336.253 68.37Z" fill="#002ED0"/>
</svg>

<svg width="343" height="76" fill="none" xmlns="http://www.w3.org/2000/svg"><path d="M0 10.176C0 6.848 1.184 4.32 3.552 2.592 5.984.864 9.504 0 14.112 0v28.128h26.976V10.176c0-3.328 1.184-5.856 3.552-7.584C47.072.864 50.592 0 55.2 0v58.752c0 3.328-1.216 5.856-3.648 7.584-2.368 1.728-5.856 2.592-10.464 2.592V40.32H14.112v18.432c0 3.328-1.216 5.856-3.648 7.584C8.096 68.064 4.608 68.928 0 68.928V10.176zm82.097 58.752c-4.224 0-8.064-.768-11.52-2.304-3.456-1.536-6.176-3.648-8.16-6.336-1.984-2.752-2.976-5.856-2.976-9.312V38.208c0-3.52.96-6.72 2.88-9.6 1.92-2.944 4.608-5.248 8.064-6.912 3.456-1.664 7.36-2.496 11.712-2.496 4.352 0 8.256.832 11.712 2.496 3.456 1.664 6.144 3.968 8.064 6.912 1.92 2.88 2.88 6.08 2.88 9.6v12.768c0 3.456-.992 6.56-2.976 9.312-1.984 2.688-4.704 4.8-8.16 6.336-3.456 1.536-7.296 2.304-11.52 2.304zm0-11.328c3.008 0 5.344-.672 7.008-2.016 1.664-1.344 2.496-3.2 2.496-5.568V38.88c0-2.496-.864-4.512-2.592-6.048-1.664-1.536-3.968-2.304-6.912-2.304s-5.28.768-7.008 2.304c-1.664 1.536-2.496 3.552-2.496 6.048v11.136c0 2.368.832 4.224 2.496 5.568 1.664 1.344 4 2.016 7.008 2.016zm26.938-28.416c0-3.2 1.024-5.664 3.072-7.392 2.048-1.728 5.152-2.592 9.312-2.592v5.664a16.457 16.457 0 00-2.4 3.264l.672.384c2.048-3.072 4.16-5.376 6.336-6.912 2.24-1.6 4.896-2.4 7.968-2.4 5.44 0 9.216 2.72 11.328 8.16 1.6-2.56 3.648-4.544 6.144-5.952 2.496-1.472 5.312-2.208 8.448-2.208 4.352 0 7.808 1.6 10.368 4.8 2.624 3.2 3.936 7.264 3.936 12.192v25.056c0 2.752-1.056 4.736-3.168 5.952-2.112 1.152-5.376 1.728-9.792 1.728V37.344c0-2.176-.48-3.904-1.44-5.184-.96-1.28-2.464-1.92-4.512-1.92-2.048 0-3.776.736-5.184 2.208-1.408 1.408-2.112 3.808-2.112 7.2v21.6c0 2.752-1.056 4.736-3.168 5.952-2.048 1.152-5.248 1.728-9.6 1.728V37.344c0-2.176-.48-3.904-1.44-5.184-.96-1.28-2.432-1.92-4.416-1.92-4.928 0-7.392 3.296-7.392 9.888v21.12c0 2.752-1.056 4.736-3.168 5.952-2.112 1.152-5.376 1.728-9.792 1.728V29.184zM203.9 68.928c-3.968 0-7.648-.8-11.04-2.4-3.328-1.6-5.984-3.776-7.968-6.528s-2.976-5.824-2.976-9.216V38.496c0-3.584.992-6.848 2.976-9.792 2.048-3.008 4.768-5.344 8.16-7.008 3.392-1.664 7.04-2.496 10.944-2.496 3.84 0 7.36.8 10.56 2.4 3.264 1.536 5.824 3.744 7.68 6.624 1.856 2.816 2.784 6.016 2.784 9.6v5.184c0 1.536-.576 2.848-1.728 3.936-1.152 1.024-2.624 1.536-4.416 1.536h-24.192v1.344c0 2.56.768 4.672 2.304 6.336 1.6 1.6 3.936 2.4 7.008 2.4 3.008 0 5.216-.64 6.624-1.92 1.408-1.344 2.112-3.008 2.112-4.992 1.28-.128 2.24-.192 2.88-.192 2.624 0 4.64.544 6.048 1.632 1.408 1.088 2.112 2.688 2.112 4.8 0 1.728-.864 3.456-2.592 5.184-1.728 1.728-4.128 3.136-7.2 4.224-3.008 1.088-6.368 1.632-10.08 1.632zm9.216-29.76v-1.344c0-2.56-.864-4.576-2.592-6.048-1.664-1.536-3.872-2.304-6.624-2.304s-4.992.768-6.72 2.304c-1.664 1.472-2.496 3.488-2.496 6.048v1.344h18.432zM236.47 5.964c0-1.633.667-2.933 2-3.9 1.333-1 3.117-1.5 5.35-1.5l10 25.5-1.25 3.4.55.25 10.75-29.1c2.233 0 4.017.5 5.35 1.5 1.333.967 2 2.267 2 3.9v30.5c-4.767 0-7.15-1.75-7.15-5.25v-14.3l1.8-5-.6-.2-8.5 22.8a3.116 3.116 0 01-1.15 1.4 3.024 3.024 0 01-1.75.55 3.102 3.102 0 01-1.8-.55 3.075 3.075 0 01-1.15-1.45l-8.5-22.85-.6.25 1.8 5v14.35c0 3.5-2.383 5.25-7.15 5.25V5.964zm47.534 30.55c-1.633 0-3.166-.317-4.6-.95-1.4-.667-2.533-1.617-3.4-2.85-.866-1.267-1.3-2.783-1.3-4.55s.467-3.283 1.4-4.55c.934-1.3 2.167-2.283 3.7-2.95 1.567-.667 3.267-1 5.1-1 1.534 0 2.884.233 4.05.7a11.34 11.34 0 013.35 2.05l.25-.3c-.7-.633-1.25-1.083-1.65-1.35v-.65c0-1.267-.466-2.267-1.4-3-.9-.767-2.183-1.15-3.85-1.15-1.466 0-2.766.267-3.9.8a6.718 6.718 0 00-2.75 2.35c-.8-.2-1.483-.567-2.05-1.1-.533-.567-.8-1.183-.8-1.85 0-1.033.45-1.967 1.35-2.8.9-.867 2.117-1.533 3.65-2 1.567-.5 3.284-.75 5.15-.75 3.634 0 6.434.833 8.4 2.5 1.967 1.667 2.95 3.933 2.95 6.8v12.15c0 1.567-.516 2.7-1.55 3.4-1 .7-2.6 1.05-4.8 1.05v-1.95c.5-.467.9-.883 1.2-1.25l-.25-.25c-1.1 1.133-2.25 2-3.45 2.6-1.2.567-2.8.85-4.8.85zm1.9-4.9c1.6 0 2.85-.3 3.75-.9.9-.6 1.35-1.467 1.35-2.6 0-1.1-.466-1.967-1.4-2.6-.9-.633-2.133-.95-3.7-.95-1.4 0-2.516.317-3.35.95-.8.633-1.2 1.5-1.2 2.6 0 1.133.4 2 1.2 2.6.834.6 1.95.9 3.35.9zm26.302 4.9c-2.834 0-4.917-.817-6.25-2.45-1.334-1.633-2-3.733-2-6.3v-11.65h-5.3c0-1.7.316-2.967.95-3.8.633-.833 1.466-1.25 2.5-1.25h1.95v-3.95c0-1.433.55-2.45 1.65-3.05 1.1-.633 2.766-.95 5-.95v7.95h6.65c0 1.8-.334 3.1-1 3.9-.667.767-1.767 1.15-3.3 1.15h-2.25v11.4c0 1.1.216 1.9.65 2.4.433.467 1.183.7 2.25.7 1.166 0 2.366-.333 3.6-1 .366.333.65.75.85 1.25.233.5.35 1 .35 1.5 0 .667-.234 1.317-.7 1.95-.467.633-1.184 1.167-2.15 1.6-.934.4-2.084.6-3.45.6zm19.232 0c-2.067 0-3.984-.417-5.75-1.25-1.734-.833-3.117-1.967-4.15-3.4a8.01 8.01 0 01-1.55-4.8v-6.4c0-1.867.516-3.567 1.55-5.1 1.066-1.567 2.483-2.783 4.25-3.65 1.766-.867 3.666-1.3 5.7-1.3 2 0 3.833.417 5.5 1.25 1.7.8 3.033 1.95 4 3.45.966 1.467 1.45 3.133 1.45 5v2.7c0 .8-.3 1.483-.9 2.05-.6.533-1.367.8-2.3.8h-12.6v.7c0 1.333.4 2.433 1.2 3.3.833.833 2.05 1.25 3.65 1.25 1.566 0 2.716-.333 3.45-1 .733-.7 1.1-1.567 1.1-2.6.666-.067 1.166-.1 1.5-.1 1.366 0 2.416.283 3.15.85.733.567 1.1 1.4 1.1 2.5 0 .9-.45 1.8-1.35 2.7-.9.9-2.15 1.633-3.75 2.2-1.567.567-3.317.85-5.25.85zm4.8-15.5v-.7c0-1.333-.45-2.383-1.35-3.15-.867-.8-2.017-1.2-3.45-1.2-1.434 0-2.6.4-3.5 1.2-.867.767-1.3 1.817-1.3 3.15v.7h9.6z" fill="#002ED0"/><path d="M233.336 68.496c-1.088 0-2.016-.352-2.784-1.056-.768-.736-1.152-1.664-1.152-2.784 0-1.12.384-2.048 1.152-2.784.768-.736 1.696-1.104 2.784-1.104 1.088 0 2.016.368 2.784 1.104.8.736 1.2 1.664 1.2 2.784 0 1.12-.4 2.048-1.2 2.784-.768.704-1.696 1.056-2.784 1.056z" fill="#FFD53F"/><path d="M248.808 68.37c-1.406 0-2.709-.283-3.91-.85-1.179-.567-2.12-1.337-2.822-2.312a5.448 5.448 0 01-1.054-3.264v-4.352c0-1.27.351-2.425 1.054-3.468.725-1.065 1.688-1.893 2.89-2.482a8.68 8.68 0 013.876-.884c1.36 0 2.606.283 3.74.85 1.156.544 2.062 1.326 2.72 2.346.657.997.986 2.13.986 3.4v1.836c0 .544-.204 1.009-.612 1.394-.408.363-.93.544-1.564.544h-8.568v.476c0 .907.272 1.655.816 2.244.566.567 1.394.85 2.482.85 1.065 0 1.847-.227 2.346-.68a2.348 2.348 0 00.748-1.768c.453-.045.793-.068 1.02-.068.929 0 1.643.193 2.142.578.498.385.748.952.748 1.7 0 .612-.306 1.224-.918 1.836-.612.612-1.462 1.11-2.55 1.496-1.066.385-2.256.578-3.57.578zm3.264-10.54v-.476c0-.907-.306-1.62-.918-2.142-.59-.544-1.372-.816-2.346-.816-.975 0-1.768.272-2.38.816-.59.521-.884 1.235-.884 2.142v.476h6.528zm7.726 10.54a4.83 4.83 0 01-1.462-.238c-.498-.136-.895-.363-1.19-.68l5.916-8.126-5.406-7.888c.182-.204.533-.363 1.054-.476a5.599 5.599 0 011.394-.204c1.315 0 2.199.363 2.652 1.088l2.788 4.488-.714.986.272.204 3.672-5.678c.476-.725 1.417-1.088 2.822-1.088.408 0 .839.068 1.292.204.476.113.805.272.986.476l-5.44 7.888 5.95 8.126a2.454 2.454 0 01-1.122.68 4.089 4.089 0 01-1.36.238 4.34 4.34 0 01-1.496-.272c-.476-.181-.816-.408-1.02-.68l-3.638-5.406-3.604 5.406c-.204.295-.521.521-.952.68-.43.181-.895.272-1.394.272zm16.788-14.518c0-.861.363-1.587 1.088-2.176.725-.612 1.791-.918 3.196-.918v1.836c-.272.34-.487.646-.646.918l.17.136c.703-.975 1.485-1.7 2.346-2.176.884-.476 1.983-.714 3.298-.714 1.224 0 2.312.26 3.264.782a5.404 5.404 0 012.244 2.21c.544.93.816 1.995.816 3.196v5.236c0 1.224-.306 2.312-.918 3.264-.589.93-1.417 1.655-2.482 2.176-1.043.499-2.221.748-3.536.748-.771 0-1.609-.159-2.516-.476-.884-.317-1.621-.76-2.21-1.326l-.136.17c.113.181.363.408.748.68v4.692c0 2.04-1.575 3.06-4.726 3.06V53.852zm7.888 10.506c1.043 0 1.836-.215 2.38-.646.567-.43.85-1.043.85-1.836v-4.59c0-.816-.283-1.44-.85-1.87-.544-.43-1.337-.646-2.38-.646-.952 0-1.734.227-2.346.68-.589.43-.884.986-.884 1.666v4.896c0 .657.295 1.213.884 1.666.612.453 1.394.68 2.346.68zm18.554 4.012c-1.405 0-2.708-.283-3.91-.85-1.178-.567-2.119-1.337-2.822-2.312a5.454 5.454 0 01-1.054-3.264v-4.352c0-1.27.352-2.425 1.054-3.468.726-1.065 1.689-1.893 2.89-2.482a8.687 8.687 0 013.876-.884c1.36 0 2.607.283 3.74.85 1.156.544 2.063 1.326 2.72 2.346.658.997.986 2.13.986 3.4v1.836c0 .544-.204 1.009-.612 1.394-.408.363-.929.544-1.564.544h-8.568v.476c0 .907.272 1.655.816 2.244.567.567 1.394.85 2.482.85 1.066 0 1.848-.227 2.346-.68.499-.476.748-1.065.748-1.768.454-.045.794-.068 1.02-.068.93 0 1.644.193 2.142.578.499.385.748.952.748 1.7 0 .612-.306 1.224-.918 1.836-.612.612-1.462 1.11-2.55 1.496-1.065.385-2.255.578-3.57.578zm3.264-10.54v-.476c0-.907-.306-1.62-.918-2.142-.589-.544-1.371-.816-2.346-.816-.974 0-1.768.272-2.38.816-.589.521-.884 1.235-.884 2.142v.476h6.528zm16.496-3.06c-1.36 0-2.459.351-3.298 1.054-.838.703-1.258 1.587-1.258 2.652v7.174c0 .975-.385 1.677-1.156 2.108-.748.408-1.915.612-3.502.612V54.294c0-1.133.374-2.006 1.122-2.618.748-.612 1.859-.918 3.332-.918v2.006c-.34.363-.623.748-.85 1.156l.238.136c1.428-2.199 3.208-3.298 5.338-3.298 1.02 0 1.791.272 2.312.816.522.544.782 1.235.782 2.074 0 .635-.17 1.19-.51 1.666-.634-.363-1.484-.544-2.55-.544zm13.465 13.6c-1.927 0-3.343-.555-4.25-1.666-.907-1.11-1.36-2.539-1.36-4.284v-7.922h-3.604c0-1.156.215-2.017.646-2.584.431-.567.997-.85 1.7-.85h1.326v-2.686c0-.975.374-1.666 1.122-2.074.748-.43 1.881-.646 3.4-.646v5.406h4.522c0 1.224-.227 2.108-.68 2.652-.453.521-1.201.782-2.244.782h-1.53v7.752c0 .748.147 1.292.442 1.632.295.317.805.476 1.53.476.793 0 1.609-.227 2.448-.68.249.227.442.51.578.85.159.34.238.68.238 1.02 0 .453-.159.895-.476 1.326-.317.43-.805.793-1.462 1.088-.635.272-1.417.408-2.346.408z" fill="#002ED0"/></svg>
